X:1
T:Omnibus in linguis
T:Daniel Friderici
T:Source : Bicinia sacra---Rostock---J.Richelius---1642. Editor : André Vierendeels (07/07/17).
T:Notes : Original clefs : G2, G2 Editorial accidentals above the staff
T:Omnibus in linguis
T:©
T:©
C:Daniel Friderici
Z:©
%%score [ 1 2 ]
L:1/8
Q:1/4=120
M:2/2
K:F
V:1 treble nm="Soprano 1" snm="S 1"
V:2 treble nm="Soprano 2" snm="S 2"
V:1
 A3 A A2 A2 | B4 A4 | c3 c c2 c2 | d4 c4 | f3 f e2 f2 | d4 c4 | d3 d c2 A2 | B4 A2 AB | c4 z2 cd | %9
w: O- mni- bus in|lin- guis,|o- mni- bus in|lin- guis,|o- mni- bus in|lin- guis,|o- mni- bus in|lin- guis lo- qui-|tur, lo- qui-|
 e4 z2 ef | g4 z2 g2 | a2 g2 f2 e2 | d2 c2 B2 A2 | G2 F2 G2 A2 | B2 c2 d2 e2 | f2 de f4- | %16
w: tur, lo- qui-|tur, spi-|ra- * * *|||||
 f2 f2 e4 | d8 | c8 :: c2 c2 d2 c2 | B3 B A4 | A2 A2 B2 A2 | d3 d c4 | F2 AB c2 c2 | z8 | %25
w: * bi- le|nu-|men:|Er- go o- mnes|po- pu- los,|er- go o- mnes|po- pu- los|ad su- a re- gna,||
 c2 de f2 f2 | z4 z2 a2 | g2 f2 e2 aa | g2 f2 e2 aa | g2 f2 e2 d2 | cdec defd | efge fgaf | %32
w: ad su- a re- gna,|ad|su- a re- gna, ad|su- a re- gna, ad|su- a re- gna|vo- * * * * * * *||
 g2 a2 g4 | f8 :| %34
w: |cat.|
V:2
 c3 c c2 c2 | d4 c4 | A3 A A2 A2 | B4 A4 | F3 F c2 A2 | B4 F4 | f3 f e2 f2 | d4 c4 | z2 AB c4 | %9
w: O- mni- bus in|lin- guis,|o- mni- bus in|lin- guis,|o- mni- bus in|lin- guis,|o- mni- bus in|lin- guis|lo- qui- tur,|
 z2 cd e4 | z2 ef g2 e2 | f2 g2 a2 g2 | f2 e2 d2 c2 | B2 A2 G2 F2 | G2 A2 B2 c2 | d3 c B2 B2 | %16
w: lo- qui- tur,|lo- qui- tur, spi-|ra- * * *||||* * * bi-|
 FGAB c2 c2- | c2 =BA B4 | c8 :: A2 A2 B2 A2 | G3 G c4 | c2 c2 d2 c2 | B3 B A4 | z8 | F2 AB c2 c2 | %25
w: le _ _ _ _ nu-||men:|Er- go o- mnes|po- pu- los,|er- go o- mnes|po- pu- los||ad su- a re- gna,|
 z8 | c2 de f2 f2 | z2 a2 g2 f2 | e2 aa g2 f2 | e2 aa g2 f2 | efge fgaf | g2 c2 defd | %32
w: |ad su- a re- gna,|ad su- a|re- gna, ad su- a|re- gna, ad su- a|re- * * * * * * *|* gna vo- * * *|
 ec f3 e/d/ e2 | f8 :| %34
w: |cat|

